X:1
T:The Tarry Sailor
M:3/4
L:1/8
K:C
 C2 CC E2| C2 C2 CD|
M:3/4
 E2 C2 CE| G2 G2 FE| D4 DE| F2 F3/2 E/2 DE| GE C2 DE| F2 D2 CB,| C4 DE|\
 F2 F3/2 E/2 DE| GE C2 DE| F2 D2 CB,| C6|

